X: 49
T: No_54_Song_of_Fortynine_Dance_(a).krn
N: Derived from No_54_Song_of_Fortynine_Dance_(a).krn
%%abc-version 2.0
%%abcx-abcm2ps-target-version 5.9.1 (29 Sep 2008)
%%abc-creator hum2abc beta
%%abcx-conversion-date 2019/03/15 08:25:35
%%humdrum-veritas 3282884490
%%humdrum-veritas-data 2374698374
%%linebreak <none>
%%barnumbers 0
L: 1/8
M: 3/4
K: D clef=bass
[K:clef=bass][M:3/4]D,4D, z ]|:  
[M:2/4]FF/E/ FE | 
D2D2 | 
A,ED2 | 
D2A,A, | 
[M:3/4]A,4A, z | 
[M:2/4]FF/E/ FE | 
D2D2 | 
A,ED2 | 
D2A,A, | 
[M:3/4]A,4A, z | 
[M:2/4]DD DF/E/ | 
DD D z | 
[M:3/4]DD A,D D z | 
DA,/G,/ F,A, A, z | 
A,G,/F,/ E,G, G, z | 
G,G,/E,/ D,D, D, z | 
[M:2/4]D,D, D,F,/E,/ | 
D,D, D, z | 
[M:3/4]D,D, A,,D, D,D,/A,,/ | 
A,,4A,, z :|]  



